<?xml version="1.0" encoding="UTF-8"?>
<map version="1.10" tiledversion="1.11.2" orientation="orthogonal" renderorder="right-down" width="27" height="15" tilewidth="48" tileheight="48" infinite="0" nextlayerid="8" nextobjectid="1">
 <tileset firstgid="1" name="Grass" tilewidth="48" tileheight="48" tilecount="77" columns="11">
  <image source="tilesets/Grass.png" width="528" height="336"/>
 </tileset>
 <tileset firstgid="78" name="Fences" tilewidth="48" tileheight="48" tilecount="16" columns="4">
  <image source="tilesets/Fences.png" width="192" height="192"/>
 </tileset>
 <tileset firstgid="94" name="Water" tilewidth="48" tileheight="48" tilecount="5" columns="5">
  <image source="tilesets/Water.png" width="256" height="64"/>
 </tileset>
 <layer id="4" name="WATER" width="27" height="15">
  <data encoding="csv">
0,0,0,0,0,0,0,0,0,0,0,0,0,0,0,0,0,0,0,0,0,0,96,96,96,96,95,
0,0,0,0,0,0,0,0,0,0,0,0,0,0,0,0,0,0,0,0,0,0,96,96,96,96,95,
0,0,0,0,0,0,0,0,0,0,0,0,0,0,0,0,0,0,0,0,0,0,96,96,96,96,95,
0,0,0,0,0,0,0,0,0,0,0,0,0,0,0,0,0,0,0,0,0,0,96,96,96,96,95,
0,0,0,0,0,0,0,0,0,0,0,0,0,0,0,0,0,0,0,0,0,0,0,96,96,96,95,
0,0,0,0,0,0,0,0,0,0,0,0,0,0,0,0,0,0,0,0,0,0,0,96,96,96,95,
0,0,0,0,0,0,0,0,0,0,0,0,0,0,0,0,0,0,0,0,0,0,0,96,96,96,95,
0,0,0,0,0,0,0,0,0,0,0,0,0,0,0,0,0,0,0,0,0,0,0,96,98,96,95,
0,0,0,0,0,0,0,0,0,0,0,0,0,0,0,0,0,0,0,0,0,0,0,96,98,96,95,
0,0,0,0,0,0,0,0,0,0,0,0,0,0,0,0,0,0,0,0,0,0,0,96,98,96,95,
0,0,0,0,0,0,0,0,0,0,0,0,0,0,0,0,0,0,0,0,0,0,0,96,96,96,95,
0,0,0,0,0,0,0,0,0,0,0,0,0,0,0,0,0,0,0,0,0,0,0,96,96,95,95,
0,0,0,0,0,0,0,0,0,0,0,0,0,0,0,0,0,0,0,0,0,96,96,96,96,95,95,
0,0,0,0,0,0,0,0,0,0,0,0,0,0,0,0,0,0,0,96,96,96,96,96,96,95,95,
0,0,0,0,0,0,0,0,0,0,0,0,0,0,0,0,0,0,0,96,97,96,96,96,96,95,95
</data>
 </layer>
 <layer id="1" name="GRASS" width="27" height="15">
  <data encoding="csv">
13,13,13,13,13,13,13,13,13,13,13,13,13,13,13,13,13,13,13,13,13,13,14,0,0,0,0,
13,13,13,13,13,13,13,72,13,13,13,13,13,13,13,72,13,13,13,13,13,13,14,0,0,0,0,
13,67,13,58,13,67,13,13,13,13,13,70,13,67,13,13,13,58,13,13,13,13,14,0,63,0,0,
13,13,13,60,13,13,13,13,67,13,58,13,13,13,13,13,13,13,13,13,13,13,28,3,0,0,0,
13,13,13,13,13,13,13,13,13,13,13,13,13,13,13,13,13,13,13,13,67,13,13,14,0,0,0,
13,13,13,13,13,57,13,13,13,13,13,13,13,13,13,58,13,13,13,13,13,13,13,14,0,0,0,
13,67,13,13,13,13,13,13,13,13,13,13,13,13,13,13,13,13,72,13,13,13,13,14,0,0,0,
13,13,13,13,13,13,13,13,13,67,13,13,13,13,57,13,13,13,13,13,13,13,13,14,0,0,0,
13,70,13,13,72,13,13,72,13,13,13,13,67,13,13,13,13,67,13,13,13,13,13,14,0,0,0,
13,13,13,13,13,13,13,13,13,13,13,13,13,13,13,13,13,13,13,13,13,13,13,14,0,73,0,
13,13,67,13,13,58,13,13,67,13,13,60,13,13,13,13,13,13,13,13,13,58,13,14,0,0,0,
13,13,13,13,13,13,13,13,13,13,13,13,13,13,13,13,13,13,13,13,13,13,13,14,0,0,0,
13,13,13,13,57,13,13,13,13,13,13,13,13,13,13,13,13,70,13,13,13,17,24,25,0,0,0,
13,13,67,13,13,13,13,13,13,13,13,67,13,13,13,58,13,13,13,17,24,25,0,0,63,0,0,
13,13,13,13,13,13,13,13,13,13,13,13,13,13,13,13,13,13,13,14,0,0,0,0,0,0,0
</data>
 </layer>
</map>
